X: 1595
T: The Maid of Listowell
M:C|
L:1/8
R:Hornpipe
B:O'Neill's 1595
N:"Collected by J.O'Neill."
Z:Transcribed by Michael D. Long, 9/30/98
K:G
B2|AFEF E2 (FD)|EFAB d^cde|fedB AFEF|DFAF D2 (BA)|\
AFEF E2 (FD)|EFAB d^cde|fedB AFDF|E2 EE E2:|
|:BF|AFAB defe|dBAB d2 (de)|fedB AFEF|DEFG A2 (BF)|\
AFEF E2 (FD)|EF (3(AB^c) dcde|fedB AFDF|E2 EE E2:|


